images/svg/vk-blue.svg

<svg width="24" height="14" viewBox="0 0 24 14" fill="none" xmlns="http://www.w3.org/2000/svg">
<path fill-rule="evenodd" clip-rule="evenodd" d="M22.7203 1.1875C22.8872 0.65875 22.7203 0.274375 21.982 0.274375H19.5272C18.908 0.274375 18.622 0.610937 18.4552 0.970937C18.4552 0.970937 17.1923 4.04594 15.4289 6.03953C14.857 6.61609 14.595 6.80828 14.2852 6.80828C14.1183 6.80828 13.9036 6.61609 13.9036 6.08781V1.16266C13.9036 0.538281 13.7133 0.25 13.1887 0.25H9.32812C8.94656 0.25 8.70844 0.538281 8.70844 0.826563C8.70844 1.42703 9.59016 1.57141 9.68531 3.25281V6.90625C9.68531 7.69891 9.54469 7.84375 9.2325 7.84375C8.39859 7.84375 6.37313 4.74484 5.15812 1.21375C4.92188 0.514375 4.68188 0.25 4.06219 0.25H1.58391C0.869063 0.25 0.75 0.586094 0.75 0.946563C0.75 1.59531 1.58391 4.86203 4.63406 9.18578C6.65953 12.1389 9.54281 13.7261 12.1402 13.7261C13.7133 13.7261 13.9036 13.3656 13.9036 12.7652V10.5311C13.9036 9.81062 14.0466 9.69062 14.5472 9.69062C14.9044 9.69062 15.548 9.88234 17.0016 11.2998C18.6694 12.9813 18.9553 13.75 19.8848 13.75H22.3392C23.0541 13.75 23.3878 13.3895 23.197 12.693C22.9828 11.9964 22.1723 10.9877 21.1238 9.78672C20.5519 9.11453 19.6941 8.36969 19.432 8.00922C19.0748 7.52875 19.17 7.33656 19.432 6.90438C19.4081 6.90438 22.4109 2.62844 22.7203 1.18563" fill="#115DA3"/>
</svg>

<svg width="24" height="14" fill="none" xmlns="http://www.w3.org/2000/svg"><path fill-rule="evenodd" clip-rule="evenodd" d="M22.72 1.188c.167-.53 0-.914-.738-.914h-2.455c-.619 0-.905.337-1.072.697 0 0-1.263 3.075-3.026 5.069-.572.576-.834.768-1.144.768-.167 0-.381-.192-.381-.72V1.163c0-.625-.19-.913-.715-.913h-3.86c-.382 0-.62.288-.62.577 0 .6.881.744.976 2.426v3.653c0 .793-.14.938-.453.938-.833 0-2.859-3.1-4.074-6.63C4.922.514 4.682.25 4.062.25H1.584C.869.25.75.586.75.947c0 .648.834 3.915 3.884 8.239 2.026 2.953 4.909 4.54 7.506 4.54 1.573 0 1.764-.36 1.764-.96V10.53c0-.72.143-.84.643-.84.357 0 1.001.191 2.455 1.609 1.667 1.681 1.953 2.45 2.883 2.45h2.454c.715 0 1.049-.36.858-1.057-.214-.697-1.025-1.705-2.073-2.906-.572-.672-1.43-1.417-1.692-1.778-.357-.48-.262-.672 0-1.105-.024 0 2.979-4.276 3.288-5.718" fill="#115DA3"/></svg>
